X: 26158
T: McIntyre's Fancy
R: jig
M: 6/8
K: Aminor
c3 AGE|GAB A2d|eag edc|eAB AGE|
c3 dcA|G3 Gcd|eaa ged|cAG A3:|
|:a3 ged|edg edc|dcA GAc|dcd deg|
aeg dec|ABA GEB|cde ged|cAG A3:|

